X:690
T:Mr Clayton's Facer
C:Kynaston
L:1/8
M:6/8
R:Jig
S:Colin Hume's website,  colinhume.com  - chords can also be printed below the stave.
Q:3/8=108
%%MIDI ratio 3 1
%%stretchstaff 0
K:D
P:A
|: de | "D"f>gf "Em"e2d | "A"{f}a3 A>Bc | "Bm"d>ef "A"ecA | "G"{c}d2B "A"A2G |\
"D"FDD FAA | "Em"GEE GBG | "D"FAF "A7"Edc | "D"d3 z :|
P:B
cd | "A"e>fe/d/ c>BA | "/"{d}e3 A2c | "Bm"d>ef d>cB | "/"{e}f3 B2f |\
"Em"ged "A"cec | "Bm"dfB "F#7"^A2F | "Bm"B>cd "F#7"c2B | "Bm"B3 "A7"zAG |
"D"FDD FAc | "/"dAF DFD | "D"FAd "A"efe | "Bm"f3 z2f/g/ |\
"D"Laz2 "Em"Lgz2 | "D"Lf>gf "A"ecd | "D"Ade "A7"e2d | "D"d3 "A7"LA2G |
"D"F>EE FAF | "Em"G>EE GBG | "D"FAF "A7"Edc | "D"d3 z2 |]

